X: 1
T: The Killavil Fancy
R: reel
M: 4/4
L: 1/8
K: Gmaj
|: DGBG A2BA | GE~E2 cEGE | DGBG A2BA | GE{G}ED EFGA |
B2Bd A2BA | GE~E2 cEGE | DGBG A2BA | GE{G}ED E~E2D :|
|: GABd efge | dB~B2 dBAB | GABd efge | dBAG EG{A}GF |
GABd efge | dB~B2 d2ga | bgag egde | gedB AGEG :|


Tune 576	Setting 13562

